cat-law-office.svg

<?xml version="1.0" encoding="UTF-8" standalone="no"?>
<!-- Created with Inkscape (http://www.inkscape.org/) -->

<svg
   width="210mm"
   height="297mm"
   viewBox="0 0 210 297"
   version="1.1"
   id="svg1"
   inkscape:version="1.3.2 (091e20ef0f, 2023-11-25)"
   sodipodi:docname="cat-law-office.svg"
   xmlns:inkscape="http://www.inkscape.org/namespaces/inkscape"
   xmlns:sodipodi="http://sodipodi.sourceforge.net/DTD/sodipodi-0.dtd"
   xmlns="http://www.w3.org/2000/svg"
   xmlns:svg="http://www.w3.org/2000/svg">
  <sodipodi:namedview
     id="namedview1"
     pagecolor="#505050"
     bordercolor="#eeeeee"
     borderopacity="1"
     inkscape:showpageshadow="0"
     inkscape:pageopacity="0"
     inkscape:pagecheckerboard="0"
     inkscape:deskcolor="#d1d1d1"
     inkscape:document-units="mm"
     inkscape:zoom="0.692"
     inkscape:cx="325.86705"
     inkscape:cy="385.11561"
     inkscape:window-width="1366"
     inkscape:window-height="743"
     inkscape:window-x="0"
     inkscape:window-y="25"
     inkscape:window-maximized="1"
     inkscape:current-layer="layer1" />
  <defs
     id="defs1" />
  <g
     inkscape:label="Layer 1"
     inkscape:groupmode="layer"
     id="layer1">
    <path
       id="rect12"
       style="fill:#333333;stroke:none;stroke-width:2.43615;stroke-linecap:round;stroke-linejoin:round;stroke-dasharray:none"
       d="M 49.364149,53.133455 H 126.763 V 159.5835 H 49.364149 Z" />
    <path
       id="path1"
       style="fill:#ffffff;stroke:none;stroke-width:0.0773283;stroke-linecap:round;stroke-linejoin:round"
       d="M 79.789962 70.66132 C 79.77665 70.661744 79.762393 70.667682 79.74707 70.67889 C 79.027635 71.205141 78.302458 73.859197 78.162671 75.119446 C 77.253575 75.00119 76.335072 75.027589 75.502885 75.223832 C 73.825411 75.619395 72.453234 76.633818 71.561523 77.973535 C 70.170978 77.044404 68.041793 76.521069 67.112699 77.306392 C 66.617221 77.725201 69.02638 81.147151 69.855168 82.294718 C 67.991929 79.494284 67.694306 75.456354 71.459721 79.442696 C 71.484361 79.813843 70.530674 82.890352 70.618945 83.264685 C 70.899526 84.454557 71.097614 85.863366 71.566691 86.990556 L 69.729077 88.275232 L 71.770296 87.430322 C 71.937878 87.748114 72.136185 88.032127 72.373877 88.270064 L 71.376005 89.643107 L 72.63691 88.500024 C 72.743236 88.581104 72.854546 88.656535 72.975391 88.720166 C 73.197373 88.837051 73.457403 88.950475 73.731417 89.060197 L 73.091146 90.263741 L 73.832186 89.098954 C 75.221088 89.63786 77.108503 90.023956 78.410201 89.717004 C 78.721426 89.643614 79.918267 89.531521 81.521122 88.457133 C 83.269484 87.285215 84.704985 85.539217 84.984477 84.823246 C 85.24447 84.157218 85.351741 82.674899 84.94882 80.292773 L 86.699618 79.095431 L 84.884741 79.918119 C 84.874272 79.861466 84.867353 79.811402 84.856319 79.753788 C 84.804837 79.484983 84.697572 79.246717 84.542126 79.0236 L 86.123425 77.655208 L 84.13905 78.560579 L 84.140084 78.572465 C 83.96394 78.410936 83.759868 78.252318 83.524101 78.091874 L 84.105977 77.070231 L 83.301892 77.94718 C 82.350483 77.336149 80.991167 76.659978 79.260278 75.572648 C 79.042887 70.360161 82.333577 73.684936 82.720532 77.095553 C 82.82961 74.94273 81.032269 72.048216 81.131482 70.973962 C 80.942726 71.321291 80.586175 71.83491 80.278304 71.810604 C 79.980532 71.787091 79.989644 70.654959 79.789962 70.66132 z M 81.131482 70.973962 C 81.258531 70.740182 81.311515 70.58035 81.214681 70.716614 C 81.166871 70.783891 81.141 70.870904 81.131482 70.973962 z M 78.52699 82.670406 C 78.656645 82.668606 78.89658 82.857891 79.032385 82.874011 C 79.146844 83.446433 78.407425 83.807217 79.003963 84.997396 C 78.07597 83.907596 77.212285 85.07062 76.861458 83.83881 C 77.327818 83.146129 77.826846 82.680326 78.52699 82.670406 z " />
    <path
       id="path7"
       style="fill:#ffffff;stroke:none;stroke-width:0.135328;stroke-linecap:round;stroke-linejoin:round"
       d="m 88.550151,84.734363 c -0.698979,3.11e-4 -1.397432,0.0367 -2.093413,0.111104 -0.494051,0.01372 0.750449,0.654174 -4.160986,4.938717 0,0 1.523646,-0.113641 2.117183,1.455208 0.593539,1.568853 -0.350269,2.072364 -0.934826,2.302702 -0.584558,0.230336 -1.686655,0.557695 -2.328024,-0.886768 -0.641369,-1.444457 0.363286,-2.383317 0.363286,-2.383317 -1.216974,0.579877 -2.570222,0.646368 -3.904155,0.629419 -1.339003,1.173249 -2.035406,2.633674 -4.557861,4.375444 l -0.419096,-1.160653 -0.657841,1.838648 c -1.291155,0.924485 -2.723509,2.340152 -3.537665,4.237153 l 2.831248,1.6059 c 2.803008,-3.107653 4.041455,-4.202233 6.308399,-4.305367 1.033967,-0.04704 1.786329,-0.284386 4.015519,0.645643 -0.04256,0.431492 -0.01922,0.87557 0.03927,1.326534 l -1.053682,-0.572575 1.209228,1.431955 c 0.06698,0.28603 0.144447,0.5744 0.235128,0.86558 l -0.610816,-0.34985 0.902271,1.21181 c 1.104119,3.03095 2.945129,6.25377 1.979724,9.12089 -0.0066,0.49502 0.239904,0.79014 0.806152,1.02165 1.302338,0.30149 1.766246,0.47992 2.677356,-0.60204 l 0.981336,-3.95789 1.515153,2.99516 c 5.150635,1.1932 9.68623,0.3805 14.411011,-0.56069 0.0538,0.45742 0.24679,1.83266 0.10439,2.24741 l 6.15621,-0.30644 c 1.27902,-2.30082 2.60813,-4.7797 1.6707,-8.03413 -1.54559,-5.688759 -5.0816,-10.601218 -9.57203,-14.040491 l 1.62471,-0.422197 -2.77451,-0.411861 C 99.520785,87.472942 96.92224,86.247254 94.232491,85.51571 l 0.51108,-0.463537 -1.593184,0.197404 c -1.519231,-0.33482 -3.06038,-0.515899 -4.600236,-0.515214 z"
       sodipodi:nodetypes="sccssscccccccsccccccccccccccccccccccs" />
    <path
       id="path9"
       style="fill:#ffffff;stroke:none;stroke-width:0.188129;stroke-linecap:round;stroke-linejoin:round"
       d="M 75.467228 112.03037 L 75.516321 114.99763 C 75.764486 114.99463 76.025563 115.00666 76.30387 115.05396 C 77.628544 115.27901 78.930168 116.5747 80.279338 117.16287 C 83.338785 118.49666 87.51615 119.54192 91.455916 119.63301 L 90.635295 118.62893 L 92.163883 119.64179 C 93.964441 119.6294 95.698211 119.40787 97.229207 118.90334 C 99.540299 118.14169 104.376 115.85864 103.99727 112.64274 C 97.186919 113.85897 94.087662 113.76923 88.138806 112.88355 C 86.49634 115.06243 83.549291 113.45131 83.567509 112.08101 L 75.467228 112.03037 z M 111.99937 112.12287 C 110.61876 116.71504 105.94446 119.74741 100.17476 121.12801 L 98.514917 122.16102 L 99.341223 121.32128 C 91.429192 122.96746 81.710713 121.59256 75.54836 116.94067 L 75.36956 118.84288 L 76.240308 122.37083 L 79.334176 122.90826 L 79.334176 134.46311 L 81.311833 133.87245 L 82.211003 131.63228 L 81.61414 134.07037 L 80.566142 134.36493 L 80.897388 135.84442 L 79.84939 134.60057 L 79.334176 134.54011 L 79.334176 140.15372 L 83.451754 140.15372 L 83.451754 123.23899 L 86.267603 123.26741 L 86.267603 140.15372 L 90.352625 140.15372 L 90.360376 124.00432 L 96.234436 124.00432 L 96.337789 140.15372 L 100.78868 140.15372 L 100.84087 123.29222 L 104.70679 123.29222 L 104.59568 140.15372 L 109.9721 140.15372 L 109.9721 131.00544 L 109.03159 131.69274 L 107.34849 129.95796 L 106.28395 130.73776 L 107.74381 129.38487 L 108.62748 130.70572 L 109.9721 130.12074 L 109.9721 122.50208 L 112.66444 122.09539 L 113.90881 117.6631 L 113.5786 112.12701 L 111.99937 112.12287 z " />
    <path
       id="path10"
       style="fill:#ffffff;stroke:none;stroke-width:0.480999;stroke-linecap:round;stroke-linejoin:round;stroke-dasharray:none"
       d="m 62.275782,93.796859 c -0.160292,-0.0026 -0.328247,7.85e-4 -0.504362,0.01033 0,0 -3.897482,6.313931 -3.708818,6.422861 1.083669,2.7575 2.785913,2.4963 4.271574,2.466 0.449144,-0.77692 0.92257,-1.52108 1.398365,-2.26601 l 9.511564,5.11339 c 0.937427,-0.20547 1.017386,-0.78289 0.956014,-1.42163 l -9.448002,-5.308198 c 0.439261,-0.712341 0.86975,-1.445459 1.274857,-2.228805 -0.665776,-1.380107 -1.346805,-2.748213 -3.751192,-2.787943 z"
       sodipodi:nodetypes="sccccccccs" />
    <path
       style="fill:#ffffff;stroke:none;stroke-width:0.480999;stroke-linecap:round;stroke-linejoin:round;stroke-dasharray:none"
       d="m 67.352075,103.04001 c 0,0 -0.148989,0.9981 0.637202,1.43372 0.786191,0.43561 1.495446,-0.15297 1.495446,-0.15297 z"
       id="path12"
       sodipodi:nodetypes="czcc" />
  </g>
</svg>

<?xml version="1.0" encoding="UTF-8" standalone="no"?>
<!-- Created with Inkscape (http://www.inkscape.org/) -->

<svg
   width="210mm"
   height="297mm"
   viewBox="0 0 210 297"
   version="1.1"
   id="svg1"
   inkscape:version="1.3.2 (091e20ef0f, 2023-11-25)"
   sodipodi:docname="cat-law-office.svg"
   xmlns:inkscape="http://www.inkscape.org/namespaces/inkscape"
   xmlns:sodipodi="http://sodipodi.sourceforge.net/DTD/sodipodi-0.dtd"
   xmlns="http://www.w3.org/2000/svg"
   xmlns:svg="http://www.w3.org/2000/svg">
  <sodipodi:namedview
     id="namedview1"
     pagecolor="#505050"
     bordercolor="#eeeeee"
     borderopacity="1"
     inkscape:showpageshadow="0"
     inkscape:pageopacity="0"
     inkscape:pagecheckerboard="0"
     inkscape:deskcolor="#d1d1d1"
     inkscape:document-units="mm"
     inkscape:zoom="0.97863578"
     inkscape:cx="294.79813"
     inkscape:cy="378.58824"
     inkscape:window-width="1366"
     inkscape:window-height="743"
     inkscape:window-x="0"
     inkscape:window-y="25"
     inkscape:window-maximized="1"
     inkscape:current-layer="layer1" />
  <defs
     id="defs1" />
  <g
     inkscape:label="Layer 1"
     inkscape:groupmode="layer"
     id="layer1">
    <path
       id="rect12"
       style="fill:#333333;stroke:none;stroke-width:2.43615;stroke-linecap:round;stroke-linejoin:round;stroke-dasharray:none"
       d="M 49.364149,53.133455 H 126.763 V 159.5835 H 49.364149 Z" />
    <path
       id="path1"
       style="fill:#ffffff;stroke:none;stroke-width:0.0773283;stroke-linecap:round;stroke-linejoin:round"
       d="M 79.789962 70.66132 C 79.77665 70.661744 79.762393 70.667682 79.74707 70.67889 C 79.027635 71.205141 78.302458 73.859197 78.162671 75.119446 C 77.253575 75.00119 76.335072 75.027589 75.502885 75.223832 C 73.825411 75.619395 72.453234 76.633818 71.561523 77.973535 C 70.170978 77.044404 68.041793 76.521069 67.112699 77.306392 C 66.617221 77.725201 69.02638 81.147151 69.855168 82.294718 C 67.991929 79.494284 67.694306 75.456354 71.459721 79.442696 C 71.484361 79.813843 70.530674 82.890352 70.618945 83.264685 C 70.899526 84.454557 71.097614 85.863366 71.566691 86.990556 L 69.729077 88.275232 L 71.770296 87.430322 C 71.937878 87.748114 72.136185 88.032127 72.373877 88.270064 L 71.376005 89.643107 L 72.63691 88.500024 C 72.743236 88.581104 72.854546 88.656535 72.975391 88.720166 C 73.197373 88.837051 73.457403 88.950475 73.731417 89.060197 L 73.091146 90.263741 L 73.832186 89.098954 C 75.221088 89.63786 77.108503 90.023956 78.410201 89.717004 C 78.721426 89.643614 79.918267 89.531521 81.521122 88.457133 C 83.269484 87.285215 84.704985 85.539217 84.984477 84.823246 C 85.24447 84.157218 85.351741 82.674899 84.94882 80.292773 L 86.699618 79.095431 L 84.884741 79.918119 C 84.874272 79.861466 84.867353 79.811402 84.856319 79.753788 C 84.804837 79.484983 84.697572 79.246717 84.542126 79.0236 L 86.123425 77.655208 L 84.13905 78.560579 L 84.140084 78.572465 C 83.96394 78.410936 83.759868 78.252318 83.524101 78.091874 L 84.105977 77.070231 L 83.301892 77.94718 C 82.350483 77.336149 80.991167 76.659978 79.260278 75.572648 C 79.042887 70.360161 82.333577 73.684936 82.720532 77.095553 C 82.82961 74.94273 81.032269 72.048216 81.131482 70.973962 C 80.942726 71.321291 80.586175 71.83491 80.278304 71.810604 C 79.980532 71.787091 79.989644 70.654959 79.789962 70.66132 z M 81.131482 70.973962 C 81.258531 70.740182 81.311515 70.58035 81.214681 70.716614 C 81.166871 70.783891 81.141 70.870904 81.131482 70.973962 z M 78.52699 82.670406 C 78.656645 82.668606 78.89658 82.857891 79.032385 82.874011 C 79.146844 83.446433 78.407425 83.807217 79.003963 84.997396 C 78.07597 83.907596 77.212285 85.07062 76.861458 83.83881 C 77.327818 83.146129 77.826846 82.680326 78.52699 82.670406 z " />
    <path
       id="path7"
       style="fill:#ffffff;stroke:none;stroke-width:0.135328;stroke-linecap:round;stroke-linejoin:round"
       d="M 88.550151 84.734363 C 87.851172 84.734674 87.152719 84.771066 86.456738 84.845467 C 85.962687 84.859187 87.207187 85.499641 82.295752 89.784184 C 82.295752 89.784184 83.819398 89.670543 84.412935 91.239392 C 85.006474 92.808245 84.062666 93.311756 83.478109 93.542094 C 82.893551 93.77243 81.791454 94.099789 81.150085 92.655326 C 80.508716 91.210869 81.513371 90.272009 81.513371 90.272009 C 80.296397 90.851886 78.943149 90.918377 77.609216 90.901428 C 78.667002 93.559816 75.872014 93.71988 73.051355 95.276872 L 72.632259 94.116219 L 71.974418 95.954867 C 70.683263 96.879352 69.492852 98.214417 68.79425 100.3639 L 71.268001 101.79792 C 75.35868 97.262644 75.91907 98.552347 81.591919 98.138196 C 81.549364 98.569688 81.572699 99.013766 81.631193 99.46473 L 80.577511 98.892155 L 81.786739 100.32411 C 81.853719 100.61014 81.931186 100.89851 82.021867 101.18969 L 81.411051 100.83984 L 82.313322 102.05165 C 83.417441 105.0826 85.258451 108.30542 84.293046 111.17254 C 84.286446 111.66756 84.53295 111.96268 85.099198 112.19419 C 86.401536 112.49568 86.865444 112.67411 87.776554 111.59215 L 88.75789 107.63426 L 90.273043 110.62942 C 95.423678 111.82262 99.959273 111.00992 104.68405 110.06873 C 104.73785 110.52615 104.93084 111.90139 104.78844 112.31614 L 110.94465 112.0097 C 112.22367 109.70888 113.55278 107.23 112.61535 103.97557 C 111.06976 98.286811 107.53375 93.374352 103.04332 89.935079 L 104.66803 89.512882 L 101.89352 89.101021 C 99.520785 87.472942 96.92224 86.247254 94.232491 85.51571 L 94.743571 85.052173 L 93.150387 85.249577 C 91.631156 84.914757 90.090007 84.733678 88.550151 84.734363 z " />
    <path
       id="path9"
       style="fill:#ffffff;stroke:none;stroke-width:0.188129;stroke-linecap:round;stroke-linejoin:round"
       d="M 75.467228 112.03037 L 75.516321 114.99763 C 75.764486 114.99463 76.025563 115.00666 76.30387 115.05396 C 77.628544 115.27901 78.930168 116.5747 80.279338 117.16287 C 83.338785 118.49666 87.51615 119.54192 91.455916 119.63301 L 90.635295 118.62893 L 92.163883 119.64179 C 93.964441 119.6294 95.698211 119.40787 97.229207 118.90334 C 99.540299 118.14169 104.376 115.85864 103.99727 112.64274 C 97.186919 113.85897 94.087662 113.76923 88.138806 112.88355 C 86.49634 115.06243 83.549291 113.45131 83.567509 112.08101 L 75.467228 112.03037 z M 111.99937 112.12287 C 110.61876 116.71504 105.94446 119.74741 100.17476 121.12801 L 98.514917 122.16102 L 99.341223 121.32128 C 91.429192 122.96746 81.710713 121.59256 75.54836 116.94067 L 75.36956 118.84288 L 76.240308 122.37083 L 79.334176 122.90826 L 79.334176 134.46311 L 81.311833 133.87245 L 82.211003 131.63228 L 81.61414 134.07037 L 80.566142 134.36493 L 80.897388 135.84442 L 79.84939 134.60057 L 79.334176 134.54011 L 79.334176 140.15372 L 83.451754 140.15372 L 83.451754 123.23899 L 86.267603 123.26741 L 86.267603 140.15372 L 90.352625 140.15372 L 90.360376 124.00432 L 96.234436 124.00432 L 96.337789 140.15372 L 100.78868 140.15372 L 100.84087 123.29222 L 104.70679 123.29222 L 104.59568 140.15372 L 109.9721 140.15372 L 109.9721 131.00544 L 109.03159 131.69274 L 107.34849 129.95796 L 106.28395 130.73776 L 107.74381 129.38487 L 108.62748 130.70572 L 109.9721 130.12074 L 109.9721 122.50208 L 112.66444 122.09539 L 113.90881 117.6631 L 113.5786 112.12701 L 111.99937 112.12287 z " />
    <path
       id="path10"
       style="fill:#ffffff;stroke:none;stroke-width:0.480999;stroke-linecap:round;stroke-linejoin:round;stroke-dasharray:none"
       d="m 62.275782,93.796859 c -0.160292,-0.0026 -0.328247,7.85e-4 -0.504362,0.01033 0,0 -3.897482,6.313931 -3.708818,6.422861 1.083669,2.7575 2.785913,2.4963 4.271574,2.466 0.449144,-0.77692 0.92257,-1.52108 1.398365,-2.26601 l 9.511564,5.11339 c 0.937427,-0.20547 1.017386,-0.78289 0.956014,-1.42163 l -9.448002,-5.308198 c 0.439261,-0.712341 0.86975,-1.445459 1.274857,-2.228805 -0.665776,-1.380107 -1.346805,-2.748213 -3.751192,-2.787943 z"
       sodipodi:nodetypes="sccccccccs" />
    <path
       style="fill:#ffffff;stroke:none;stroke-width:0.480999;stroke-linecap:round;stroke-linejoin:round;stroke-dasharray:none"
       d="m 67.352075,103.04001 c 0,0 -0.148989,0.9981 0.637202,1.43372 0.786191,0.43561 1.495446,-0.15297 1.495446,-0.15297 z"
       id="path12"
       sodipodi:nodetypes="czcc" />
  </g>
</svg>
